; generated by Slic3r 1.3.1-dev on 2021-07-07 at 12:10:58

; external perimeters extrusion width = 0.30mm (0.39mm^3/s)
; perimeters extrusion width = 0.30mm (0.77mm^3/s)
; infill extrusion width = 0.30mm (0.77mm^3/s)
; solid infill extrusion width = 0.30mm (0.77mm^3/s)
; top infill extrusion width = 0.30mm (0.77mm^3/s)

M107
M104 S200 ; set temperature
G28 ; home all axes
G1 Z5 F5000 ; lift nozzle

; Filament gcode

M109 S200 ; set temperature and wait for it to be reached
G21 ; set units to millimeters
G90 ; use absolute coordinates
M82 ; use absolute distances for extrusion
G92 E0
G92 E0
G1 Z0.300 F1200.000
G1 E-2.00000 F2400.00000
G92 E0
G1 X96.371 Y96.371 F1200.000
G1 E2.00000 F2400.00000
G1 F900
G1 X103.629 Y96.371 E2.04125
G1 X103.629 Y103.629 E2.08249
G1 X96.371 Y103.629 E2.12374
G1 X96.371 Y96.446 E2.16455
G1 X95.836 Y95.836 F1200.000
G1 F900
G1 X104.164 Y95.836 E2.21189
G1 X104.164 Y104.164 E2.25922
G1 X95.836 Y104.164 E2.30655
G1 X95.836 Y95.911 E2.35346
G1 X95.300 Y95.300 F1200.000
G1 F900
G1 X104.700 Y95.300 E2.40688
G1 X104.700 Y104.700 E2.46030
G1 X95.300 Y104.700 E2.51372
G1 X95.300 Y95.375 E2.56672
G1 X95.783 Y95.429 F1200.000
G1 E0.56672 F2400.00000
G92 E0
G1 X97.115 Y96.699 F1200.000
G1 E2.00000 F2400.00000
G1 F900
G1 X96.699 Y97.115 E2.00342
G1 X96.699 Y97.889 E2.00791
G1 X97.889 Y96.699 E2.01767
G1 X98.662 Y96.699 E2.02216
G1 X96.699 Y98.662 E2.03826
G1 X96.699 Y99.435 E2.04275
G1 X99.435 Y96.699 E2.06520
G1 X100.208 Y96.699 E2.06969
G1 X96.699 Y100.208 E2.09849
G1 X96.699 Y100.982 E2.10297
G1 X100.982 Y96.699 E2.13811
G1 X101.755 Y96.699 E2.14260
G1 X96.699 Y101.755 E2.18409
G1 X96.699 Y102.528 E2.18857
G1 X102.528 Y96.699 E2.23640
G1 X103.301 Y96.699 E2.24089
G1 X96.699 Y103.301 E2.29506
G1 X97.472 Y103.301 E2.29955
G1 X103.301 Y97.472 E2.34738
G1 X103.301 Y98.245 E2.35187
G1 X98.245 Y103.301 E2.39335
G1 X99.018 Y103.301 E2.39784
G1 X103.301 Y99.018 E2.43298
G1 X103.301 Y99.792 E2.43747
G1 X99.792 Y103.301 E2.46626
G1 X100.565 Y103.301 E2.47075
G1 X103.301 Y100.565 E2.49320
G1 X103.301 Y101.338 E2.49769
G1 X101.338 Y103.301 E2.51380
G1 X102.111 Y103.301 E2.51828
G1 X103.301 Y102.111 E2.52805
G1 X103.301 Y102.885 E2.53253
G1 X102.885 Y103.301 E2.53595
G1 Z0.500 F1200.000
G1 X95.664 Y95.664 F1200.000
G1 F900
G1 X104.336 Y95.664 E2.55172
G1 X104.336 Y104.336 E2.56749
G1 X95.664 Y104.336 E2.58326
G1 X95.664 Y95.739 E2.59889
G1 X95.407 Y95.407 F1200.000
G1 F900
G1 X104.593 Y95.407 E2.61560
G1 X104.593 Y104.593 E2.63230
G1 X95.407 Y104.593 E2.64901
G1 X95.407 Y95.482 E2.66557
G1 X95.150 Y95.150 F1200.000
G1 F900
G1 X104.850 Y95.150 E2.68321
G1 X104.850 Y104.850 E2.70085
G1 X95.150 Y104.850 E2.71849
G1 X95.150 Y95.225 E2.73599
G1 X95.633 Y95.279 F1200.000
G1 X95.821 Y103.979 F1200.000
G1 F900
G1 X96.021 Y104.179 E2.73652
G1 X96.392 Y104.179 E2.73721
G1 X95.821 Y103.608 E2.73870
G1 X95.821 Y103.237 E2.73939
G1 X96.763 Y104.179 E2.74186
G1 X97.134 Y104.179 E2.74255
G1 X95.821 Y102.866 E2.74599
G1 X95.821 Y102.495 E2.74668
G1 X97.505 Y104.179 E2.75109
G1 X97.875 Y104.179 E2.75178
G1 X95.821 Y102.125 E2.75717
G1 X95.821 Y101.754 E2.75786
G1 X98.246 Y104.179 E2.76422
G1 X98.617 Y104.179 E2.76491
G1 X95.821 Y101.383 E2.77224
G1 X95.821 Y101.012 E2.77293
G1 X98.988 Y104.179 E2.78123
G1 X99.358 Y104.179 E2.78192
G1 X95.821 Y100.642 E2.79120
G1 X95.821 Y100.271 E2.79188
G1 X99.729 Y104.179 E2.80213
G1 X100.100 Y104.179 E2.80282
G1 X95.821 Y99.900 E2.81404
G1 X95.821 Y99.529 E2.81473
G1 X100.471 Y104.179 E2.82693
G1 X100.842 Y104.179 E2.82761
G1 X95.821 Y99.158 E2.84078
G1 X95.821 Y98.788 E2.84147
G1 X101.212 Y104.179 E2.85561
G1 X101.583 Y104.179 E2.85630
G1 X95.821 Y98.417 E2.87141
G1 X95.821 Y98.046 E2.87210
G1 X101.954 Y104.179 E2.88818
G1 X102.325 Y104.179 E2.88887
G1 X95.821 Y97.675 E2.90593
G1 X95.821 Y97.304 E2.90662
G1 X102.696 Y104.179 E2.92465
G1 X103.066 Y104.179 E2.92533
G1 X95.821 Y96.934 E2.94434
G1 X95.821 Y96.563 E2.94502
G1 X103.437 Y104.179 E2.96500
G1 X103.808 Y104.179 E2.96569
G1 X95.821 Y96.192 E2.98663
G1 X95.821 Y95.821 E2.98732
G1 X104.179 Y104.179 E3.00924
G1 X104.179 Y103.808 E3.00993
G1 X96.192 Y95.821 E3.03088
G1 X96.563 Y95.821 E3.03157
G1 X104.179 Y103.437 E3.05154
G1 X104.179 Y103.066 E3.05223
G1 X96.934 Y95.821 E3.07123
G1 X97.304 Y95.821 E3.07192
G1 X104.179 Y102.696 E3.08995
G1 X104.179 Y102.325 E3.09064
G1 X97.675 Y95.821 E3.10769
G1 X98.046 Y95.821 E3.10838
G1 X104.179 Y101.954 E3.12447
G1 X104.179 Y101.583 E3.12515
G1 X98.417 Y95.821 E3.14027
G1 X98.788 Y95.821 E3.14095
G1 X104.179 Y101.212 E3.15509
G1 X104.179 Y100.842 E3.15578
G1 X99.158 Y95.821 E3.16895
G1 X99.529 Y95.821 E3.16964
G1 X104.179 Y100.471 E3.18183
G1 X104.179 Y100.100 E3.18252
G1 X99.900 Y95.821 E3.19374
G1 X100.271 Y95.821 E3.19443
G1 X104.179 Y99.729 E3.20468
G1 X104.179 Y99.358 E3.20537
G1 X100.642 Y95.821 E3.21465
G1 X101.012 Y95.821 E3.21533
G1 X104.179 Y98.988 E3.22364
G1 X104.179 Y98.617 E3.22433
G1 X101.383 Y95.821 E3.23166
G1 X101.754 Y95.821 E3.23235
G1 X104.179 Y98.246 E3.23871
G1 X104.179 Y97.875 E3.23939
G1 X102.125 Y95.821 E3.24478
G1 X102.495 Y95.821 E3.24547
G1 X104.179 Y97.505 E3.24988
G1 X104.179 Y97.134 E3.25057
G1 X102.866 Y95.821 E3.25401
G1 X103.237 Y95.821 E3.25470
G1 X104.179 Y96.763 E3.25717
G1 X104.179 Y96.392 E3.25786
G1 X103.608 Y95.821 E3.25936
G1 X103.979 Y95.821 E3.26004
G1 X104.179 Y96.021 E3.26057
G1 Z0.700 F1200.000
G1 X95.664 Y95.664 F1200.000
G1 F900
G1 X104.336 Y95.664 E3.27634
G1 X104.336 Y104.336 E3.29211
G1 X95.664 Y104.336 E3.30788
G1 X95.664 Y95.739 E3.32351
G1 X95.407 Y95.407 F1200.000
G1 F900
G1 X104.593 Y95.407 E3.34021
G1 X104.593 Y104.593 E3.35692
G1 X95.407 Y104.593 E3.37362
G1 X95.407 Y95.482 E3.39019
G1 X95.150 Y95.150 F1200.000
G1 F900
G1 X104.850 Y95.150 E3.40783
G1 X104.850 Y104.850 E3.42547
G1 X95.150 Y104.850 E3.44311
G1 X95.150 Y95.225 E3.46061
G1 X95.633 Y95.279 F1200.000
G1 X96.021 Y95.821 F1200.000
G1 F900
G1 X95.821 Y96.021 E3.46113
G1 X95.821 Y96.392 E3.46182
G1 X96.392 Y95.821 E3.46332
G1 X96.763 Y95.821 E3.46401
G1 X95.821 Y96.763 E3.46648
G1 X95.821 Y97.134 E3.46716
G1 X97.134 Y95.821 E3.47061
G1 X97.505 Y95.821 E3.47129
G1 X95.821 Y97.505 E3.47571
G1 X95.821 Y97.875 E3.47640
G1 X97.875 Y95.821 E3.48178
G1 X98.246 Y95.821 E3.48247
G1 X95.821 Y98.246 E3.48883
G1 X95.821 Y98.617 E3.48952
G1 X98.617 Y95.821 E3.49685
G1 X98.988 Y95.821 E3.49754
G1 X95.821 Y98.988 E3.50585
G1 X95.821 Y99.358 E3.50653
G1 X99.358 Y95.821 E3.51581
G1 X99.729 Y95.821 E3.51650
G1 X95.821 Y99.729 E3.52675
G1 X95.821 Y100.100 E3.52744
G1 X100.100 Y95.821 E3.53866
G1 X100.471 Y95.821 E3.53935
G1 X95.821 Y100.471 E3.55154
G1 X95.821 Y100.842 E3.55223
G1 X100.842 Y95.821 E3.56540
G1 X101.212 Y95.821 E3.56608
G1 X95.821 Y101.212 E3.58022
G1 X95.821 Y101.583 E3.58091
G1 X101.583 Y95.821 E3.59603
G1 X101.954 Y95.821 E3.59671
G1 X95.821 Y101.954 E3.61280
G1 X95.821 Y102.325 E3.61349
G1 X102.325 Y95.821 E3.63054
G1 X102.696 Y95.821 E3.63123
G1 X95.821 Y102.696 E3.64926
G1 X95.821 Y103.066 E3.64995
G1 X103.066 Y95.821 E3.66895
G1 X103.437 Y95.821 E3.66964
G1 X95.821 Y103.437 E3.68961
G1 X95.821 Y103.808 E3.69030
G1 X103.808 Y95.821 E3.71125
G1 X104.179 Y95.821 E3.71194
G1 X95.821 Y104.179 E3.73386
G1 X96.192 Y104.179 E3.73455
G1 X104.179 Y96.192 E3.75549
G1 X104.179 Y96.563 E3.75618
G1 X96.563 Y104.179 E3.77616
G1 X96.934 Y104.179 E3.77684
G1 X104.179 Y96.934 E3.79585
G1 X104.179 Y97.304 E3.79653
G1 X97.304 Y104.179 E3.81456
G1 X97.675 Y104.179 E3.81525
G1 X104.179 Y97.675 E3.83231
G1 X104.179 Y98.046 E3.83300
G1 X98.046 Y104.179 E3.84908
G1 X98.417 Y104.179 E3.84977
G1 X104.179 Y98.417 E3.86488
G1 X104.179 Y98.788 E3.86557
G1 X98.788 Y104.179 E3.87971
G1 X99.158 Y104.179 E3.88040
G1 X104.179 Y99.158 E3.89357
G1 X104.179 Y99.529 E3.89425
G1 X99.529 Y104.179 E3.90645
G1 X99.900 Y104.179 E3.90714
G1 X104.179 Y99.900 E3.91836
G1 X104.179 Y100.271 E3.91905
G1 X100.271 Y104.179 E3.92930
G1 X100.642 Y104.179 E3.92998
G1 X104.179 Y100.642 E3.93926
G1 X104.179 Y101.012 E3.93995
G1 X101.012 Y104.179 E3.94825
G1 X101.383 Y104.179 E3.94894
G1 X104.179 Y101.383 E3.95627
G1 X104.179 Y101.754 E3.95696
G1 X101.754 Y104.179 E3.96332
G1 X102.125 Y104.179 E3.96401
G1 X104.179 Y102.125 E3.96940
G1 X104.179 Y102.495 E3.97008
G1 X102.495 Y104.179 E3.97450
G1 X102.866 Y104.179 E3.97519
G1 X104.179 Y102.866 E3.97863
G1 X104.179 Y103.237 E3.97932
G1 X103.237 Y104.179 E3.98179
G1 X103.608 Y104.179 E3.98247
G1 X104.179 Y103.608 E3.98397
G1 X104.179 Y103.979 E3.98466
G1 X103.979 Y104.179 E3.98518
M106 S188.7
G1 Z0.900 F1200.000
G1 X95.664 Y95.664 F1200.000
G1 F900
G1 X104.336 Y95.664 E4.00095
G1 X104.336 Y104.336 E4.01672
G1 X95.664 Y104.336 E4.03249
G1 X95.664 Y95.739 E4.04812
G1 X95.407 Y95.407 F1200.000
G1 F900
G1 X104.593 Y95.407 E4.06483
G1 X104.593 Y104.593 E4.08153
G1 X95.407 Y104.593 E4.09824
G1 X95.407 Y95.482 E4.11480
G1 X95.150 Y95.150 F1200.000
G1 F900
G1 X104.850 Y95.150 E4.13244
G1 X104.850 Y104.850 E4.15008
G1 X95.150 Y104.850 E4.16772
G1 X95.150 Y95.225 E4.18522
G1 X95.633 Y95.279 F1200.000
G1 X95.821 Y103.979 F1200.000
G1 F900
G1 X96.021 Y104.179 E4.18574
G1 X96.392 Y104.179 E4.18641
G1 X95.821 Y103.608 E4.18788
G1 X95.821 Y103.237 E4.18856
G1 X96.763 Y104.179 E4.19098
G1 X97.134 Y104.179 E4.19165
G1 X95.821 Y102.866 E4.19503
G1 X95.821 Y102.495 E4.19570
G1 X97.505 Y104.179 E4.20003
G1 X97.875 Y104.179 E4.20071
G1 X95.821 Y102.125 E4.20599
G1 X95.821 Y101.754 E4.20666
G1 X98.246 Y104.179 E4.21290
G1 X98.617 Y104.179 E4.21357
G1 X95.821 Y101.383 E4.22076
G1 X95.821 Y101.012 E4.22144
G1 X98.988 Y104.179 E4.22958
G1 X99.359 Y104.179 E4.23025
G1 X95.821 Y100.641 E4.23935
G1 X95.821 Y100.271 E4.24002
G1 X99.729 Y104.179 E4.25008
G1 X100.100 Y104.179 E4.25075
G1 X95.821 Y99.900 E4.26175
G1 X95.821 Y99.529 E4.26243
G1 X100.471 Y104.179 E4.27439
G1 X100.842 Y104.179 E4.27506
G1 X95.821 Y99.158 E4.28797
G1 X95.821 Y98.788 E4.28864
G1 X101.212 Y104.179 E4.30251
G1 X101.583 Y104.179 E4.30318
G1 X95.821 Y98.417 E4.31800
G1 X95.821 Y98.046 E4.31868
G1 X101.954 Y104.179 E4.33445
G1 X102.325 Y104.179 E4.33512
G1 X95.821 Y97.675 E4.35185
G1 X95.821 Y97.304 E4.35252
G1 X102.696 Y104.179 E4.37020
G1 X103.066 Y104.179 E4.37087
G1 X95.821 Y96.934 E4.38951
G1 X95.821 Y96.563 E4.39018
G1 X103.437 Y104.179 E4.40977
G1 X103.808 Y104.179 E4.41044
G1 X95.821 Y96.192 E4.43098
G1 X95.821 Y95.821 E4.43166
G1 X104.179 Y104.179 E4.45315
G1 X104.179 Y103.808 E4.45382
G1 X96.192 Y95.821 E4.47436
G1 X96.563 Y95.821 E4.47504
G1 X104.179 Y103.437 E4.49462
G1 X104.179 Y103.066 E4.49530
G1 X96.934 Y95.821 E4.51393
G1 X97.304 Y95.821 E4.51460
G1 X104.179 Y102.696 E4.53228
G1 X104.179 Y102.325 E4.53296
G1 X97.675 Y95.821 E4.54968
G1 X98.046 Y95.821 E4.55036
G1 X104.179 Y101.954 E4.56613
G1 X104.179 Y101.583 E4.56680
G1 X98.417 Y95.821 E4.58162
G1 X98.788 Y95.821 E4.58229
G1 X104.179 Y101.212 E4.59616
G1 X104.179 Y100.842 E4.59683
G1 X99.158 Y95.821 E4.60974
G1 X99.529 Y95.821 E4.61042
G1 X104.179 Y100.471 E4.62237
G1 X104.179 Y100.100 E4.62305
G1 X99.900 Y95.821 E4.63405
G1 X100.271 Y95.821 E4.63473
G1 X104.179 Y99.729 E4.64478
G1 X104.179 Y99.358 E4.64545
G1 X100.642 Y95.821 E4.65455
G1 X101.012 Y95.821 E4.65522
G1 X104.179 Y98.988 E4.66337
G1 X104.179 Y98.617 E4.66404
G1 X101.383 Y95.821 E4.67123
G1 X101.754 Y95.821 E4.67190
G1 X104.179 Y98.246 E4.67814
G1 X104.179 Y97.875 E4.67881
G1 X102.125 Y95.821 E4.68410
G1 X102.495 Y95.821 E4.68477
G1 X104.179 Y97.505 E4.68910
G1 X104.179 Y97.134 E4.68977
G1 X102.866 Y95.821 E4.69315
G1 X103.237 Y95.821 E4.69382
G1 X104.179 Y96.763 E4.69624
G1 X104.179 Y96.392 E4.69692
G1 X103.608 Y95.821 E4.69839
G1 X103.979 Y95.821 E4.69906
G1 X104.179 Y96.021 E4.69958
G1 Z1.100 F1200.000
G1 X95.664 Y95.664 F1200.000
G1 F900
G1 X104.336 Y95.664 E4.71534
G1 X104.336 Y104.336 E4.73111
G1 X95.664 Y104.336 E4.74688
G1 X95.664 Y95.739 E4.76252
G1 X95.407 Y95.407 F1200.000
G1 F900
G1 X104.593 Y95.407 E4.77922
G1 X104.593 Y104.593 E4.79592
G1 X95.407 Y104.593 E4.81263
G1 X95.407 Y95.482 E4.82920
G1 X95.150 Y95.150 F1200.000
G1 F900
G1 X104.850 Y95.150 E4.84684
G1 X104.850 Y104.850 E4.86447
G1 X95.150 Y104.850 E4.88211
G1 X95.150 Y95.225 E4.89962
G1 X95.633 Y95.279 F1200.000
G1 X96.021 Y95.821 F1200.000
G1 F900
G1 X95.821 Y96.021 E4.90013
G1 X95.821 Y96.392 E4.90081
G1 X96.392 Y95.821 E4.90227
G1 X96.763 Y95.821 E4.90295
G1 X95.821 Y96.763 E4.90537
G1 X95.821 Y97.134 E4.90604
G1 X97.134 Y95.821 E4.90942
G1 X97.505 Y95.821 E4.91009
G1 X95.821 Y97.505 E4.91442
G1 X95.821 Y97.875 E4.91510
G1 X97.875 Y95.821 E4.92038
G1 X98.246 Y95.821 E4.92105
G1 X95.821 Y98.246 E4.92729
G1 X95.821 Y98.617 E4.92796
G1 X98.617 Y95.821 E4.93515
G1 X98.988 Y95.821 E4.93583
G1 X95.821 Y98.988 E4.94397
G1 X95.821 Y99.359 E4.94465
G1 X99.359 Y95.821 E4.95374
G1 X99.729 Y95.821 E4.95442
G1 X95.821 Y99.729 E4.96447
G1 X95.821 Y100.100 E4.96514
G1 X100.100 Y95.821 E4.97615
G1 X100.471 Y95.821 E4.97682
G1 X95.821 Y100.471 E4.98878
G1 X95.821 Y100.842 E4.98945
G1 X100.842 Y95.821 E5.00236
G1 X101.212 Y95.821 E5.00304
G1 X95.821 Y101.212 E5.01690
G1 X95.821 Y101.583 E5.01758
G1 X101.583 Y95.821 E5.03239
G1 X101.954 Y95.821 E5.03307
G1 X95.821 Y101.954 E5.04884
G1 X95.821 Y102.325 E5.04951
G1 X102.325 Y95.821 E5.06624
G1 X102.696 Y95.821 E5.06691
G1 X95.821 Y102.696 E5.08459
G1 X95.821 Y103.066 E5.08527
G1 X103.066 Y95.821 E5.10390
G1 X103.437 Y95.821 E5.10457
G1 X95.821 Y103.437 E5.12416
G1 X95.821 Y103.808 E5.12483
G1 X103.808 Y95.821 E5.14537
G1 X104.179 Y95.821 E5.14605
G1 X95.821 Y104.179 E5.16754
G1 X96.192 Y104.179 E5.16821
G1 X104.179 Y96.192 E5.18875
G1 X104.179 Y96.563 E5.18943
G1 X96.563 Y104.179 E5.20901
G1 X96.934 Y104.179 E5.20969
G1 X104.179 Y96.934 E5.22832
G1 X104.179 Y97.304 E5.22899
G1 X97.304 Y104.179 E5.24667
G1 X97.675 Y104.179 E5.24735
G1 X104.179 Y97.675 E5.26407
G1 X104.179 Y98.046 E5.26475
G1 X98.046 Y104.179 E5.28052
G1 X98.417 Y104.179 E5.28119
G1 X104.179 Y98.417 E5.29601
G1 X104.179 Y98.788 E5.29669
G1 X98.788 Y104.179 E5.31055
G1 X99.158 Y104.179 E5.31122
G1 X104.179 Y99.158 E5.32413
G1 X104.179 Y99.529 E5.32481
G1 X99.529 Y104.179 E5.33677
G1 X99.900 Y104.179 E5.33744
G1 X104.179 Y99.900 E5.34844
G1 X104.179 Y100.271 E5.34912
G1 X100.271 Y104.179 E5.35917
G1 X100.642 Y104.179 E5.35984
G1 X104.179 Y100.642 E5.36894
G1 X104.179 Y101.012 E5.36961
G1 X101.012 Y104.179 E5.37776
G1 X101.383 Y104.179 E5.37843
G1 X104.179 Y101.383 E5.38562
G1 X104.179 Y101.754 E5.38630
G1 X101.754 Y104.179 E5.39253
G1 X102.125 Y104.179 E5.39321
G1 X104.179 Y102.125 E5.39849
G1 X104.179 Y102.495 E5.39916
G1 X102.495 Y104.179 E5.40349
G1 X102.866 Y104.179 E5.40417
G1 X104.179 Y102.866 E5.40754
G1 X104.179 Y103.237 E5.40821
G1 X103.237 Y104.179 E5.41064
G1 X103.608 Y104.179 E5.41131
G1 X104.179 Y103.608 E5.41278
G1 X104.179 Y103.979 E5.41345
G1 X103.979 Y104.179 E5.41397
G1 Z1.300 F1200.000
G1 X95.664 Y95.664 F1200.000
G1 F900
G1 X104.336 Y95.664 E5.42974
G1 X104.336 Y104.336 E5.44551
G1 X95.664 Y104.336 E5.46128
G1 X95.664 Y95.739 E5.47691
G1 X95.407 Y95.407 F1200.000
G1 F900
G1 X104.593 Y95.407 E5.49361
G1 X104.593 Y104.593 E5.51032
G1 X95.407 Y104.593 E5.52702
G1 X95.407 Y95.482 E5.54359
G1 X95.150 Y95.150 F1200.000
G1 F900
G1 X104.850 Y95.150 E5.56123
G1 X104.850 Y104.850 E5.57887
G1 X95.150 Y104.850 E5.59651
G1 X95.150 Y95.225 E5.61401
G1 X95.633 Y95.279 F1200.000
G1 X95.821 Y103.979 F1200.000
G1 F900
G1 X96.021 Y104.179 E5.61452
G1 X96.392 Y104.179 E5.61520
G1 X95.821 Y103.608 E5.61667
G1 X95.821 Y103.237 E5.61734
G1 X96.763 Y104.179 E5.61976
G1 X97.134 Y104.179 E5.62044
G1 X95.821 Y102.866 E5.62381
G1 X95.821 Y102.495 E5.62449
G1 X97.505 Y104.179 E5.62881
G1 X97.875 Y104.179 E5.62949
G1 X95.821 Y102.125 E5.63477
G1 X95.821 Y101.754 E5.63545
G1 X98.246 Y104.179 E5.64168
G1 X98.617 Y104.179 E5.64236
G1 X95.821 Y101.383 E5.64955
G1 X95.821 Y101.012 E5.65022
G1 X98.988 Y104.179 E5.65836
G1 X99.359 Y104.179 E5.65904
G1 X95.821 Y100.641 E5.66813
G1 X95.821 Y100.271 E5.66881
G1 X99.729 Y104.179 E5.67886
G1 X100.100 Y104.179 E5.67953
G1 X95.821 Y99.900 E5.69054
G1 X95.821 Y99.529 E5.69121
