; generated by Slic3r 1.3.1-dev on 2021-07-07 at 12:16:08

; external perimeters extrusion width = 0.30mm (0.39mm^3/s)
; perimeters extrusion width = 0.30mm (0.77mm^3/s)
; infill extrusion width = 0.30mm (0.77mm^3/s)
; solid infill extrusion width = 0.30mm (0.77mm^3/s)
; top infill extrusion width = 0.30mm (0.77mm^3/s)

M107
M104 S200 ; set temperature
G28 ; home all axes
G1 Z5 F5000 ; lift nozzle

; Filament gcode

M109 S200 ; set temperature and wait for it to be reached
G21 ; set units to millimeters
G90 ; use absolute coordinates
M82 ; use absolute distances for extrusion
G92 E0
G92 E0
G1 Z0.300 F1200.000
G1 E-2.00000 F2400.00000
G92 E0
G1 X106.750 Y98.978 F1200.000
G1 E2.00000 F2400.00000
G1 F600
G1 X106.935 Y98.784 E2.00152
G1 X107.153 Y98.623 E2.00306
G1 X107.395 Y98.502 E2.00460
G1 X107.716 Y98.411 E2.00650
G1 X107.932 Y98.384 E2.00773
G1 X108.165 Y98.393 E2.00906
G1 X108.480 Y98.457 E2.01089
G1 X108.727 Y98.556 E2.01240
G1 X108.957 Y98.697 E2.01393
G1 X109.178 Y98.894 E2.01562
G1 X109.331 Y99.085 E2.01701
G1 X109.368 Y100.318 E2.02402
G1 X109.350 Y100.500 E2.02506
G1 X109.270 Y100.787 E2.02675
G1 X109.129 Y101.065 E2.02852
G1 X108.995 Y101.239 E2.02977
G1 X108.916 Y101.319 E2.03041
G1 X108.722 Y101.439 E2.03170
G1 X108.473 Y101.540 E2.03323
G1 X108.208 Y101.597 E2.03477
G1 X107.907 Y101.608 E2.03648
G1 X107.665 Y101.577 E2.03787
G1 X107.398 Y101.496 E2.03945
G1 X107.140 Y101.365 E2.04110
G1 X106.936 Y101.211 E2.04255
G1 X106.755 Y101.023 E2.04404
G1 X106.590 Y100.781 E2.04570
G1 X106.479 Y100.536 E2.04723
G1 X106.407 Y100.254 E2.04888
G1 X106.384 Y99.989 E2.05039
G1 X106.409 Y99.724 E2.05191
G1 X106.463 Y99.507 E2.05318
G1 X106.566 Y99.266 E2.05467
G1 X106.709 Y99.041 E2.05618
G1 X106.299 Y98.689 F1200.000
G1 F600
G1 X106.579 Y98.381 E2.05855
G1 X106.871 Y98.165 E2.06061
G1 X107.200 Y98.000 E2.06270
G1 X107.609 Y97.884 E2.06512
G1 X107.909 Y97.847 E2.06684
G1 X108.229 Y97.859 E2.06866
G1 X108.635 Y97.941 E2.07101
G1 X108.969 Y98.076 E2.07306
G1 X109.277 Y98.266 E2.07512
G1 X109.568 Y98.524 E2.07733
G1 X109.782 Y98.791 E2.07927
G1 X109.989 Y99.161 E2.08168
G1 X109.869 Y99.161 E2.08236
G1 X109.904 Y100.337 E2.08904
G1 X109.879 Y100.591 E2.09049
G1 X109.810 Y100.875 E2.09216
G1 X109.677 Y101.190 E2.09410
G1 X109.574 Y101.365 E2.09525
G1 X109.398 Y101.593 E2.09689
G1 X109.251 Y101.740 E2.09807
G1 X108.966 Y101.919 E2.09998
G1 X108.630 Y102.054 E2.10204
G1 X108.275 Y102.130 E2.10410
G1 X107.883 Y102.145 E2.10633
G1 X107.561 Y102.104 E2.10818
G1 X107.198 Y101.994 E2.11034
G1 X106.841 Y101.810 E2.11262
G1 X106.580 Y101.614 E2.11447
G1 X106.338 Y101.362 E2.11646
G1 X106.121 Y101.044 E2.11864
G1 X105.972 Y100.715 E2.12070
G1 X105.877 Y100.344 E2.12287
G1 X105.848 Y99.997 E2.12485
G1 X105.879 Y99.633 E2.12693
G1 X105.954 Y99.336 E2.12867
G1 X106.090 Y99.015 E2.13065
G1 X106.258 Y98.752 E2.13243
G1 X105.848 Y98.400 F1200.000
G1 F900
G1 X105.904 Y98.313 E2.13301
G1 X106.224 Y97.978 E2.13565
G1 X106.590 Y97.707 E2.13824
G1 X107.005 Y97.499 E2.14087
G1 X107.502 Y97.358 E2.14381
G1 X107.886 Y97.310 E2.14601
G1 X108.293 Y97.325 E2.14833
G1 X108.789 Y97.426 E2.15120
G1 X109.211 Y97.596 E2.15378
G1 X109.598 Y97.834 E2.15637
G1 X109.957 Y98.154 E2.15910
G1 X110.228 Y98.491 E2.16156
G1 X110.450 Y98.889 E2.16415
G1 X110.602 Y99.320 E2.16675
G1 X110.668 Y99.697 E2.16892
G1 X110.421 Y99.697 E2.17033
G1 X110.441 Y100.356 E2.17407
G1 X110.408 Y100.681 E2.17593
G1 X110.323 Y101.035 E2.17800
G1 X110.154 Y101.436 E2.18047
G1 X110.019 Y101.666 E2.18199
G1 X109.802 Y101.947 E2.18401
G1 X109.587 Y102.162 E2.18573
G1 X109.210 Y102.398 E2.18826
G1 X108.787 Y102.568 E2.19085
G1 X108.342 Y102.664 E2.19344
G1 X107.859 Y102.682 E2.19618
G1 X107.458 Y102.631 E2.19849
G1 X106.997 Y102.492 E2.20122
G1 X106.542 Y102.256 E2.20413
G1 X106.224 Y102.016 E2.20640
G1 X105.921 Y101.702 E2.20888
G1 X105.652 Y101.308 E2.21159
G1 X105.465 Y100.893 E2.21417
G1 X105.347 Y100.434 E2.21687
G1 X105.311 Y100.006 E2.21931
G1 X105.350 Y99.542 E2.22195
G1 X105.445 Y99.165 E2.22416
G1 X105.615 Y98.764 E2.22664
G1 X105.807 Y98.463 E2.22867
G1 X105.951 Y98.402 F1200.000
G1 X107.590 Y99.152 F1200.000
G1 F600
G1 X107.382 Y99.211 E2.23014
G1 X107.226 Y99.290 E2.23133
G1 X107.082 Y99.396 E2.23255
G1 X106.965 Y99.519 E2.23371
G1 X106.833 Y99.725 E2.23538
G1 X106.733 Y100.009 E2.23743
G1 X108.007 Y98.736 E2.24971
G1 X108.163 Y98.712 E2.25079
G1 X108.310 Y98.718 E2.25179
G1 X108.534 Y98.763 E2.25335
G1 X108.774 Y98.877 E2.25516
G1 X106.881 Y100.771 E2.27342
G1 X106.964 Y100.892 E2.27443
G1 X107.081 Y101.014 E2.27558
G1 X107.254 Y101.139 E2.27703
G1 X107.366 Y101.194 E2.27789
G1 X109.023 Y99.537 E2.29387
G1 X109.040 Y100.091 E2.29765
G1 X108.996 Y100.339 E2.29937
G1 X108.899 Y100.546 E2.30093
G1 X108.769 Y100.700 E2.30230
G1 X108.352 Y101.118 E2.30633
G1 Z0.500 F1200.000
G1 X109.832 Y99.333 F1200.000
G1 F900
G1 X109.763 Y100.259 E2.30802
G1 X109.704 Y100.522 E2.30851
G1 X109.599 Y100.786 E2.30902
G1 X109.454 Y101.062 E2.30959
G1 X109.225 Y101.397 E2.31033
G1 X109.047 Y101.579 E2.31079
G1 X108.845 Y101.736 E2.31126
G1 X108.534 Y101.906 E2.31190
G1 X108.354 Y101.977 E2.31225
G1 X108.087 Y102.044 E2.31275
G1 X107.818 Y102.072 E2.31325
G1 X107.603 Y102.067 E2.31364
G1 X107.230 Y102.015 E2.31432
G1 X106.946 Y101.927 E2.31486
G1 X106.753 Y101.839 E2.31525
G1 X106.451 Y101.653 E2.31589
G1 X106.172 Y101.409 E2.31657
G1 X106.026 Y101.222 E2.31700
G1 X105.812 Y100.782 E2.31789
G1 X105.710 Y100.389 E2.31863
G1 X105.677 Y99.997 E2.31934
G1 X105.710 Y99.604 E2.32006
G1 X105.809 Y99.225 E2.32077
G1 X105.988 Y98.834 E2.32155
G1 X106.194 Y98.535 E2.32221
G1 X106.413 Y98.299 E2.32280
G1 X106.776 Y98.021 E2.32363
G1 X107.135 Y97.840 E2.32436
G1 X107.488 Y97.730 E2.32503
G1 X107.908 Y97.675 E2.32580
G1 X108.200 Y97.683 E2.32634
G1 X108.678 Y97.774 E2.32722
G1 X109.027 Y97.913 E2.32790
G1 X109.383 Y98.130 E2.32866
G1 X109.677 Y98.389 E2.32938
G1 X109.925 Y98.696 E2.33009
G1 X110.117 Y99.040 E2.33081
G1 X110.221 Y99.333 E2.33137
G1 X109.907 Y99.333 E2.33194
G1 X110.071 Y99.590 F1200.000
G1 F900
G1 X110.018 Y100.297 E2.33323
G1 X109.950 Y100.598 E2.33379
G1 X109.833 Y100.894 E2.33437
G1 X109.592 Y101.336 E2.33529
G1 X109.421 Y101.565 E2.33581
G1 X109.218 Y101.771 E2.33633
G1 X108.987 Y101.951 E2.33687
G1 X108.644 Y102.139 E2.33758
G1 X108.433 Y102.223 E2.33799
G1 X108.132 Y102.298 E2.33856
G1 X107.828 Y102.330 E2.33911
G1 X107.582 Y102.324 E2.33956
G1 X107.174 Y102.266 E2.34031
G1 X106.855 Y102.168 E2.34092
G1 X106.632 Y102.067 E2.34136
G1 X106.298 Y101.861 E2.34207
G1 X105.984 Y101.587 E2.34283
G1 X105.810 Y101.364 E2.34335
G1 X105.653 Y101.072 E2.34395
G1 X105.568 Y100.864 E2.34436
G1 X105.456 Y100.433 E2.34517
G1 X105.419 Y99.997 E2.34596
G1 X105.456 Y99.560 E2.34676
G1 X105.566 Y99.138 E2.34755
G1 X105.764 Y98.707 E2.34842
G1 X105.992 Y98.373 E2.34915
G1 X106.235 Y98.113 E2.34980
G1 X106.394 Y97.977 E2.35018
G1 X106.643 Y97.800 E2.35073
G1 X107.038 Y97.601 E2.35154
G1 X107.433 Y97.478 E2.35229
G1 X107.894 Y97.417 E2.35314
G1 X108.387 Y97.444 E2.35403
G1 X108.755 Y97.528 E2.35472
G1 X109.142 Y97.682 E2.35548
G1 X109.536 Y97.922 E2.35632
G1 X109.864 Y98.210 E2.35711
G1 X110.139 Y98.551 E2.35791
G1 X110.352 Y98.933 E2.35870
G1 X110.499 Y99.348 E2.35950
G1 X110.543 Y99.590 E2.35995
G1 X110.146 Y99.590 E2.36067
G1 X110.309 Y99.847 F1200.000
G1 F900
G1 X110.273 Y100.336 E2.36156
G1 X110.196 Y100.674 E2.36219
G1 X110.067 Y101.001 E2.36283
G1 X109.904 Y101.312 E2.36347
G1 X109.806 Y101.479 E2.36382
G1 X109.616 Y101.733 E2.36440
G1 X109.390 Y101.963 E2.36499
G1 X109.128 Y102.167 E2.36559
G1 X108.753 Y102.372 E2.36637
G1 X108.512 Y102.468 E2.36684
G1 X108.176 Y102.551 E2.36747
G1 X107.839 Y102.587 E2.36809
G1 X107.561 Y102.580 E2.36859
G1 X107.118 Y102.518 E2.36941
G1 X106.763 Y102.408 E2.37008
G1 X106.511 Y102.294 E2.37058
G1 X106.145 Y102.069 E2.37137
G1 X105.797 Y101.764 E2.37221
G1 X105.594 Y101.505 E2.37281
G1 X105.420 Y101.182 E2.37347
G1 X105.323 Y100.945 E2.37394
G1 X105.201 Y100.477 E2.37482
G1 X105.161 Y99.997 E2.37569
G1 X105.201 Y99.517 E2.37657
G1 X105.323 Y99.051 E2.37745
G1 X105.539 Y98.580 E2.37839
G1 X105.791 Y98.212 E2.37920
G1 X106.057 Y97.927 E2.37991
G1 X106.510 Y97.579 E2.38095
G1 X106.942 Y97.362 E2.38183
G1 X107.378 Y97.226 E2.38266
G1 X107.881 Y97.160 E2.38358
G1 X108.430 Y97.190 E2.38458
G1 X108.831 Y97.281 E2.38533
G1 X109.258 Y97.451 E2.38616
G1 X109.689 Y97.714 E2.38708
G1 X110.050 Y98.032 E2.38795
G1 X110.353 Y98.407 E2.38883
G1 X110.587 Y98.827 E2.38971
G1 X110.748 Y99.282 E2.39058
G1 X110.817 Y99.661 E2.39128
G1 X110.830 Y99.847 E2.39162
G1 X110.384 Y99.847 E2.39243
G1 X109.820 Y99.880 F1200.000
G1 X109.592 Y98.668 F1200.000
G1 F900
G1 X109.130 Y98.237 E2.39365
G1 X108.812 Y98.044 E2.39437
G1 X108.448 Y97.911 E2.39512
G1 X109.713 Y99.175 E2.39858
G1 X109.693 Y99.175 E2.39861
G1 X109.668 Y99.517 E2.39928
G1 X107.988 Y97.837 E2.40387
G1 X107.821 Y97.832 E2.40419
G1 X107.623 Y97.859 E2.40458
G1 X109.641 Y99.877 E2.41009
G1 X109.615 Y100.237 E2.41079
G1 X107.304 Y97.926 E2.41710
G1 X107.025 Y98.033 E2.41768
G1 X109.552 Y100.560 E2.42459
G1 X109.437 Y100.831 E2.42516
G1 X106.773 Y98.168 E2.43244
G1 X106.611 Y98.283 E2.43282
G1 X106.552 Y98.333 E2.43297
G1 X109.300 Y101.081 E2.44048
G1 X109.143 Y101.311 E2.44102
G1 X106.359 Y98.527 E2.44863
G1 X106.192 Y98.746 E2.44916
G1 X108.951 Y101.505 E2.45670
G1 X108.724 Y101.664 E2.45724
G1 X106.052 Y98.993 E2.46454
G1 X105.938 Y99.264 E2.46511
G1 X108.468 Y101.795 E2.47202
G1 X108.170 Y101.883 E2.47263
G1 X105.862 Y99.575 E2.47893
G1 X105.838 Y99.937 E2.47964
G1 X107.813 Y101.913 E2.48503
G1 X107.373 Y101.859 E2.48589
G1 X105.901 Y100.387 E2.48992
G1 X105.955 Y100.593 E2.49033
G1 X106.145 Y100.986 E2.49117
G1 X106.259 Y101.131 E2.49153
G1 X106.459 Y101.331 E2.49207
G1 Z0.700 F1200.000
G1 X109.880 Y99.768 F1200.000
G1 F900
G1 X109.801 Y100.203 E2.49288
G1 X109.712 Y100.501 E2.49344
G1 X109.607 Y100.766 E2.49396
G1 X109.420 Y101.072 E2.49461
G1 X109.306 Y101.211 E2.49494
G1 X109.111 Y101.391 E2.49542
G1 X108.890 Y101.541 E2.49591
G1 X108.635 Y101.662 E2.49642
G1 X108.379 Y101.739 E2.49691
G1 X108.128 Y101.775 E2.49737
G1 X107.897 Y101.776 E2.49779
G1 X107.352 Y101.689 E2.49879
G1 X107.009 Y101.579 E2.49945
G1 X106.657 Y101.377 E2.50019
G1 X106.403 Y101.152 E2.50080
G1 X106.273 Y101.006 E2.50116
G1 X106.117 Y100.776 E2.50166
G1 X105.990 Y100.520 E2.50218
G1 X105.900 Y100.249 E2.50270
G1 X105.850 Y99.975 E2.50321
G1 X105.841 Y99.609 E2.50388
G1 X105.907 Y99.171 E2.50468
G1 X106.045 Y98.786 E2.50542
G1 X106.181 Y98.554 E2.50591
G1 X106.467 Y98.251 E2.50667
G1 X106.780 Y98.020 E2.50738
G1 X107.171 Y97.826 E2.50817
G1 X107.514 Y97.724 E2.50882
G1 X107.805 Y97.681 E2.50936
G1 X108.144 Y97.678 E2.50997
G1 X108.380 Y97.704 E2.51041
G1 X108.677 Y97.773 E2.51096
G1 X109.018 Y97.908 E2.51163
G1 X109.383 Y98.130 E2.51240
G1 X109.677 Y98.389 E2.51312
G1 X109.925 Y98.696 E2.51383
G1 X110.117 Y99.040 E2.51455
G1 X110.221 Y99.333 E2.51512
G1 X109.960 Y99.333 E2.51559
G1 X109.894 Y99.695 E2.51626
G1 X110.174 Y99.590 F1200.000
G1 F900
G1 X110.051 Y100.263 E2.51750
G1 X109.955 Y100.585 E2.51811
G1 X109.838 Y100.881 E2.51869
G1 X109.630 Y101.221 E2.51942
G1 X109.493 Y101.388 E2.51981
G1 X109.271 Y101.593 E2.52036
G1 X109.018 Y101.765 E2.52092
G1 X108.727 Y101.903 E2.52150
G1 X108.435 Y101.990 E2.52206
G1 X108.147 Y102.032 E2.52259
G1 X107.878 Y102.033 E2.52308
G1 X107.292 Y101.940 E2.52415
G1 X106.914 Y101.819 E2.52488
G1 X106.747 Y101.739 E2.52521
G1 X106.501 Y101.583 E2.52574
G1 X106.221 Y101.334 E2.52642
G1 X106.070 Y101.164 E2.52684
G1 X105.894 Y100.906 E2.52741
G1 X105.752 Y100.618 E2.52799
G1 X105.651 Y100.313 E2.52857
G1 X105.594 Y100.001 E2.52915
G1 X105.583 Y99.599 E2.52988
G1 X105.609 Y99.336 E2.53036
G1 X105.659 Y99.101 E2.53080
G1 X105.811 Y98.677 E2.53162
G1 X105.974 Y98.399 E2.53220
G1 X106.296 Y98.058 E2.53306
G1 X106.645 Y97.799 E2.53385
G1 X107.076 Y97.586 E2.53472
G1 X107.458 Y97.472 E2.53545
G1 X107.785 Y97.424 E2.53605
G1 X108.157 Y97.421 E2.53672
G1 X108.423 Y97.450 E2.53721
G1 X108.754 Y97.527 E2.53783
G1 X109.133 Y97.677 E2.53857
G1 X109.536 Y97.922 E2.53943
G1 X109.864 Y98.210 E2.54022
G1 X110.139 Y98.551 E2.54102
G1 X110.352 Y98.933 E2.54181
G1 X110.499 Y99.350 E2.54262
G1 X110.545 Y99.590 E2.54306
G1 X110.249 Y99.590 E2.54360
G1 X110.389 Y99.847 F1200.000
G1 F900
G1 X110.302 Y100.323 E2.54448
G1 X110.198 Y100.669 E2.54514
G1 X110.069 Y100.997 E2.54578
G1 X109.840 Y101.371 E2.54657
G1 X109.681 Y101.564 E2.54703
G1 X109.431 Y101.795 E2.54765
G1 X109.146 Y101.989 E2.54828
G1 X108.820 Y102.144 E2.54893
G1 X108.490 Y102.242 E2.54956
G1 X108.167 Y102.289 E2.55015
G1 X107.858 Y102.290 E2.55071
G1 X107.232 Y102.191 E2.55187
G1 X106.819 Y102.058 E2.55266
G1 X106.622 Y101.964 E2.55305
G1 X106.346 Y101.788 E2.55365
G1 X106.039 Y101.516 E2.55439
G1 X105.867 Y101.323 E2.55486
G1 X105.672 Y101.036 E2.55549
G1 X105.513 Y100.716 E2.55614
G1 X105.401 Y100.377 E2.55679
G1 X105.338 Y100.028 E2.55744
G1 X105.326 Y99.590 E2.55823
G1 X105.355 Y99.297 E2.55877
G1 X105.411 Y99.031 E2.55927
G1 X105.577 Y98.568 E2.56016
G1 X105.767 Y98.244 E2.56084
G1 X106.125 Y97.865 E2.56179
G1 X106.511 Y97.579 E2.56266
G1 X106.982 Y97.346 E2.56362
G1 X107.403 Y97.221 E2.56442
G1 X107.765 Y97.167 E2.56508
G1 X108.169 Y97.164 E2.56582
G1 X108.466 Y97.196 E2.56636
G1 X108.831 Y97.281 E2.56704
G1 X109.247 Y97.446 E2.56786
G1 X109.689 Y97.714 E2.56880
G1 X110.050 Y98.032 E2.56967
G1 X110.353 Y98.407 E2.57055
G1 X110.587 Y98.827 E2.57142
G1 X110.748 Y99.283 E2.57230
G1 X110.811 Y99.611 E2.57291
G1 X110.828 Y99.847 E2.57334
G1 X110.464 Y99.847 E2.57400
G1 X109.905 Y99.870 F1200.000
G1 X109.017 Y101.135 F1200.000
G1 F900
G1 X109.310 Y100.822 E2.57484
G1 X109.476 Y100.551 E2.57546
G1 X109.621 Y100.141 E2.57631
G1 X108.167 Y101.595 E2.58032
G1 X108.009 Y101.618 E2.58063
G1 X107.762 Y101.610 E2.58111
G1 X109.722 Y99.650 E2.58652
G1 X109.809 Y99.173 E2.58747
G1 X107.426 Y101.557 E2.59404
G1 X107.116 Y101.476 E2.59466
G1 X109.826 Y98.766 E2.60214
G1 X109.655 Y98.547 E2.60268
G1 X106.852 Y101.350 E2.61041
G1 X106.708 Y101.267 E2.61074
G1 X106.622 Y101.191 E2.61096
G1 X109.460 Y98.352 E2.61879
G1 X109.240 Y98.183 E2.61933
G1 X106.423 Y100.999 E2.62710
G1 X106.258 Y100.774 E2.62765
G1 X108.996 Y98.036 E2.63520
G1 X108.717 Y97.926 E2.63579
G1 X106.126 Y100.516 E2.64293
G1 X106.037 Y100.215 E2.64354
G1 X108.399 Y97.854 E2.65006
G1 X108.025 Y97.837 E2.65079
G1 X106.002 Y99.861 E2.65637
G1 X105.998 Y99.724 E2.65663
G1 X106.043 Y99.430 E2.65721
G1 X107.566 Y97.906 E2.66142
G1 X107.351 Y97.973 E2.66186
G1 X107.014 Y98.140 E2.66259
G1 X106.745 Y98.339 E2.66324
G1 X106.536 Y98.547 E2.66382
M106 S252.45
G1 Z0.900 F1200.000
G1 X110.219 Y99.814 F1200.000
G1 F900
G1 X110.119 Y100.330 E2.66477
G1 X110.066 Y100.497 E2.66509
G1 X109.939 Y100.765 E2.66563
G1 X109.785 Y101.001 E2.66614
G1 X109.622 Y101.189 E2.66660
G1 X109.401 Y101.387 E2.66714
G1 X109.183 Y101.532 E2.66761
G1 X108.989 Y101.628 E2.66801
G1 X108.733 Y101.714 E2.66850
G1 X108.455 Y101.763 E2.66901
G1 X107.851 Y101.773 E2.67011
G1 X107.633 Y101.742 E2.67051
G1 X107.344 Y101.654 E2.67106
G1 X107.096 Y101.533 E2.67156
G1 X106.876 Y101.380 E2.67205
G1 X106.704 Y101.220 E2.67248
G1 X106.521 Y100.991 E2.67301
G1 X106.380 Y100.741 E2.67353
G1 X106.290 Y100.502 E2.67400
G1 X106.233 Y100.246 E2.67447
G1 X106.181 Y99.715 E2.67544
G1 X106.200 Y99.463 E2.67590
G1 X106.278 Y99.131 E2.67652
G1 X106.345 Y98.954 E2.67687
G1 X106.472 Y98.717 E2.67735
G1 X106.647 Y98.482 E2.67789
G1 X106.823 Y98.300 E2.67835
G1 X107.030 Y98.134 E2.67883
G1 X107.299 Y97.973 E2.67940
G1 X107.584 Y97.856 E2.67996
G1 X107.938 Y97.772 E2.68062
G1 X108.355 Y97.748 E2.68138
G1 X108.749 Y97.800 E2.68211
G1 X109.044 Y97.921 E2.68268
G1 X109.392 Y98.135 E2.68343
G1 X109.747 Y98.464 E2.68431
G1 X109.943 Y98.721 E2.68489
G1 X110.104 Y99.009 E2.68549
G1 X110.205 Y99.267 E2.68600
G1 X110.274 Y99.531 E2.68650
G1 X110.233 Y99.740 E2.68688
G1 X110.471 Y99.863 F1200.000
G1 F900
G1 X110.368 Y100.394 E2.68787
G1 X110.306 Y100.591 E2.68824
G1 X110.164 Y100.891 E2.68885
